public/library/tether-gold-text-light.svg

<svg width="126" height="39" viewBox="0 0 126 39" fill="none" xmlns="http://www.w3.org/2000/svg">
<path d="M40.5174 5.15079L44.9047 4.66113V8.8526H48.7044V12.4957H44.8655V18.1561C44.8655 19.488 45.4335 20.1735 46.5695 20.1735C47.2942 20.1735 47.9014 20.056 48.3911 19.8014L49.39 23.4444C48.3911 23.8361 47.3334 24.0516 46.217 24.1103C44.4542 24.1887 43.044 23.7774 42.0255 22.8568C41.007 21.9167 40.4978 20.3498 40.4978 18.1365V12.5152H37.8145V8.8526H40.4978V5.15079H40.5174Z" fill="#D3B25B"/>
<path d="M54.0515 14.5133H61.1809C61.1418 13.7495 60.7696 13.1619 60.0841 12.7506C59.3986 12.3197 58.5564 12.1042 57.5966 12.1042C56.7152 12.1042 55.971 12.3197 55.3442 12.7506C54.6979 13.1815 54.267 13.769 54.0515 14.5133ZM65.0982 17.7255H54.0515C54.169 18.4893 54.5803 19.1357 55.305 19.6449C56.0101 20.1346 56.9503 20.3696 58.145 20.3696C59.8295 20.3696 61.1222 19.9779 62.0427 19.1749L64.5106 21.917C63.0025 23.4055 60.8675 24.1302 58.0667 24.1302C55.3834 24.1302 53.3072 23.4055 51.8187 21.9757C50.3497 20.5263 49.625 18.5873 49.625 16.139C49.625 13.8278 50.3497 11.9671 51.7795 10.5373C53.2289 9.08792 55.1679 8.38281 57.5966 8.38281C60.2604 8.38281 62.2778 9.18585 63.688 10.8115C65.0982 12.4372 65.5683 14.7288 65.0982 17.7255Z" fill="#D3B25B"/>
<path d="M68.7605 5.15079L73.1479 4.66113V8.8526H76.9476V12.4957H73.1087V18.1561C73.1087 19.488 73.6767 20.1735 74.8127 20.1735C75.5374 20.1735 76.1446 20.056 76.6342 19.8014L77.6331 23.4444C76.6342 23.8361 75.5766 24.0516 74.4601 24.1103C72.6974 24.1887 71.2872 23.7774 70.2687 22.8568C69.2502 21.9167 68.7409 20.3498 68.7409 18.1365V12.5152H66.0576V8.8526H68.7409V5.15079H68.7605Z" fill="#D3B25B"/>
<path d="M79.2784 2.50684H83.6853V10.6352C84.7625 9.24453 86.2903 8.53942 88.2489 8.53942C92.2445 8.53942 94.2423 10.9485 94.2423 15.7472V23.8167H89.855V15.7864C89.855 14.7483 89.6004 13.9452 89.0715 13.3772C88.5623 12.8092 87.8768 12.535 86.9954 12.535C86.0357 12.535 85.2326 12.868 84.5863 13.5143C83.9595 14.1607 83.6461 15.0617 83.6461 16.2173V23.8363H79.2588V2.50684H79.2784Z" fill="#D3B25B"/>
<path d="M100.412 14.5133H107.522C107.483 13.7495 107.11 13.1619 106.425 12.7506C105.739 12.3197 104.897 12.1042 103.937 12.1042C103.056 12.1042 102.312 12.3197 101.685 12.7506C101.058 13.1815 100.627 13.769 100.412 14.5133ZM111.459 17.7255H100.412C100.529 18.4893 100.941 19.1357 101.665 19.6449C102.37 20.1346 103.311 20.3696 104.505 20.3696C106.19 20.3696 107.483 19.9779 108.403 19.1749L110.871 21.917C109.363 23.4055 107.228 24.1302 104.427 24.1302C101.744 24.1302 99.6676 23.4055 98.179 21.9757C96.71 20.5263 95.9854 18.5873 95.9854 16.139C95.9854 13.8278 96.71 11.9671 98.1398 10.5373C99.5892 9.08792 101.528 8.38281 103.957 8.38281C106.621 8.38281 108.638 9.18585 110.048 10.8115C111.439 12.4372 111.929 14.7288 111.459 17.7255Z" fill="#D3B25B"/>
<path d="M113.28 8.79402H117.354L117.687 10.4393C118.647 9.1074 119.979 8.42188 121.702 8.42188C123.132 8.42188 124.347 8.87236 125.385 9.79292L123.563 13.2597C122.858 12.7504 122.055 12.4958 121.154 12.4958C120.155 12.4958 119.332 12.8092 118.667 13.436C118.001 14.0431 117.668 14.8854 117.668 15.9626V23.7775H113.28V8.79402Z" fill="#D3B25B"/>
<path fill-rule="evenodd" clip-rule="evenodd" d="M16.8766 13.3383C20.931 13.3383 24.2998 12.6528 25.142 11.7322C24.4369 10.9487 21.9103 10.3416 18.6785 10.1849V12.1239C18.1105 12.1631 17.5034 12.1631 16.8766 12.1631C16.2498 12.1631 15.6623 12.1435 15.0747 12.1043V10.1849C11.8429 10.3612 9.31629 10.9683 8.61118 11.7322C9.43381 12.6528 12.8222 13.3383 16.8766 13.3383ZM24.0648 4.23064V6.89438H18.659V8.73549C22.4587 8.93136 25.2987 9.7344 25.3183 10.7137V12.7311C25.2987 13.7104 22.4587 14.5135 18.659 14.7093V19.2338H15.0747V14.7289C11.2749 14.533 8.43491 13.73 8.41532 12.7507V10.7137C8.43491 9.7344 11.2749 8.93136 15.0747 8.73549V6.89438H9.66884V4.23064H24.0648ZM7.55352 0H26.5131C26.9636 0 27.3749 0.235036 27.6099 0.626762L33.1332 10.1065C33.427 10.5962 33.3291 11.223 32.9178 11.6147L17.7188 26.4611C17.2292 26.9508 16.4261 26.9508 15.9365 26.4611L0.757074 11.6343C0.345761 11.223 0.267416 10.5962 0.561211 10.087L6.47628 0.587589C6.71131 0.235036 7.12262 0 7.55352 0Z" fill="#D3B25B"/>
<path d="M79.1221 33.532C79.1221 30.1827 80.924 28.7529 84.1558 28.7529C86.0948 28.7529 87.3091 29.3013 88.1122 30.1631L86.3102 31.9651C85.8989 31.5342 85.3897 31.1425 84.1362 31.1425C82.2951 31.1425 81.7075 32.0238 81.7075 33.5712C81.7075 35.2948 82.0404 36.1566 84.097 36.1566C85.5464 36.1566 86.0948 35.804 86.0948 34.903V34.7463H83.7444V32.6506H88.6018V34.3742C88.6018 37.0771 87.3679 38.3306 83.9599 38.3306C80.0426 38.3306 79.1221 36.5679 79.1221 33.532Z" fill="#D3B25B"/>
<path d="M89.6787 33.532C89.6787 29.9673 91.7744 28.7529 94.7124 28.7529C97.6503 28.7529 99.7657 29.9673 99.7657 33.532C99.7657 37.1163 97.6503 38.3306 94.7124 38.3306C91.7744 38.3502 89.6787 37.1163 89.6787 33.532ZM97.1411 33.5907C97.1411 32.1414 96.6514 31.1425 94.7124 31.1425C92.7734 31.1425 92.2837 32.1609 92.2837 33.5907C92.2837 35.0205 92.7734 36.0586 94.7124 36.0586C96.6514 36.0586 97.1411 35.0401 97.1411 33.5907Z" fill="#D3B25B"/>
<path d="M101.45 28.9102H104.036V35.9612H108.403V38.1941H101.45V28.9102Z" fill="#D3B25B"/>
<path d="M109.833 28.9102H113.319C117.06 28.9102 118.706 29.7915 118.706 33.5521C118.706 37.2343 117.08 38.1941 113.319 38.1941H109.833V28.9102ZM113.476 35.9416C115.807 35.9416 116.081 35.2757 116.081 33.5521C116.081 31.8285 115.846 31.2409 113.359 31.2409H112.438V35.9416H113.476Z" fill="#D3B25B"/>
</svg>

<svg xmlns="http://www.w3.org/2000/svg" width="126" height="39" fill="none" viewBox="0 0 126 39"><path fill="#d3b25b" d="m40.517 5.15 4.388-.489v4.192h3.8v3.643h-3.84v5.66c0 1.332.569 2.018 1.704 2.018.725 0 1.332-.118 1.822-.373l.999 3.643c-.999.392-2.057.608-3.173.666-1.763.079-3.173-.333-4.191-1.253-1.019-.94-1.528-2.507-1.528-4.72v-5.622h-2.683V8.853h2.683V5.15zM54.052 14.513h7.129c-.04-.764-.411-1.351-1.097-1.762-.685-.431-1.528-.647-2.487-.647-.882 0-1.626.216-2.253.647a3.1 3.1 0 0 0-1.293 1.762m11.046 3.213H54.051c.118.763.53 1.41 1.254 1.919.705.49 1.645.725 2.84.725 1.685 0 2.977-.392 3.898-1.195l2.468 2.742c-1.508 1.488-3.643 2.213-6.444 2.213-2.684 0-4.76-.724-6.248-2.154-1.47-1.45-2.194-3.389-2.194-5.837 0-2.311.725-4.172 2.154-5.602 1.45-1.45 3.389-2.154 5.818-2.154 2.663 0 4.68.803 6.091 2.429 1.41 1.625 1.88 3.917 1.41 6.914M68.76 5.15l4.388-.489v4.192h3.8v3.643h-3.84v5.66c0 1.332.569 2.018 1.705 2.018.724 0 1.332-.118 1.821-.373l1 3.643c-1 .392-2.057.608-3.174.666-1.763.079-3.173-.333-4.191-1.253-1.019-.94-1.528-2.507-1.528-4.72v-5.622h-2.683V8.853h2.683V5.15zM79.278 2.507h4.407v8.128c1.078-1.39 2.605-2.096 4.564-2.096 3.996 0 5.993 2.41 5.993 7.208v8.07h-4.387v-8.03c0-1.039-.255-1.842-.784-2.41-.509-.568-1.194-.842-2.076-.842-.96 0-1.762.333-2.409.98q-.94.97-.94 2.702v7.62H79.26V2.506zM100.412 14.513h7.11c-.039-.764-.412-1.351-1.097-1.762-.686-.431-1.528-.647-2.488-.647-.881 0-1.625.216-2.252.647a3.14 3.14 0 0 0-1.273 1.762m11.047 3.213h-11.047c.117.763.529 1.41 1.253 1.919.705.49 1.646.725 2.84.725 1.685 0 2.978-.392 3.898-1.195l2.468 2.742c-1.508 1.488-3.643 2.213-6.444 2.213-2.683 0-4.76-.724-6.248-2.154-1.469-1.45-2.194-3.389-2.194-5.837 0-2.311.725-4.172 2.155-5.602 1.45-1.45 3.388-2.154 5.817-2.154 2.664 0 4.681.803 6.091 2.429 1.391 1.625 1.881 3.917 1.411 6.914M113.28 8.794h4.074l.333 1.645c.96-1.332 2.292-2.017 4.015-2.017 1.43 0 2.645.45 3.683 1.37l-1.822 3.468a4 4 0 0 0-2.409-.764c-.999 0-1.822.313-2.487.94q-.999.911-.999 2.527v7.815h-4.388z"/><path fill="#d3b25b" fill-rule="evenodd" d="M16.877 13.338c4.054 0 7.423-.685 8.265-1.606-.705-.783-3.232-1.39-6.463-1.547v1.939c-.569.04-1.176.04-1.802.04s-1.215-.02-1.802-.06v-1.92c-3.232.177-5.759.784-6.464 1.548.823.92 4.211 1.606 8.266 1.606m7.188-9.107v2.663h-5.406v1.841c3.8.196 6.64 1 6.66 1.979v2.017c-.02.98-2.86 1.783-6.66 1.978v4.525h-3.584v-4.505c-3.8-.196-6.64-.999-6.66-1.978v-2.037c.02-.98 2.86-1.783 6.66-1.979v-1.84H9.669V4.23zM7.554 0h18.96c.45 0 .86.235 1.096.627l5.523 9.48a1.22 1.22 0 0 1-.215 1.508l-15.2 14.846c-.489.49-1.292.49-1.781 0L.757 11.634a1.27 1.27 0 0 1-.196-1.547l5.915-9.5A1.32 1.32 0 0 1 7.554 0" clip-rule="evenodd"/><path fill="#d3b25b" d="M79.122 33.532c0-3.35 1.802-4.78 5.034-4.78 1.939 0 3.153.55 3.956 1.411l-1.802 1.802c-.411-.43-.92-.823-2.174-.823-1.84 0-2.428.882-2.428 2.43 0 1.723.332 2.585 2.389 2.585 1.45 0 1.998-.353 1.998-1.254v-.157h-2.35v-2.095h4.857v1.723c0 2.703-1.234 3.957-4.642 3.957-3.917 0-4.838-1.763-4.838-4.799M89.679 33.532c0-3.565 2.095-4.78 5.033-4.78s5.054 1.215 5.054 4.78c0 3.584-2.116 4.799-5.054 4.799-2.938.02-5.033-1.215-5.033-4.799m7.462.059c0-1.45-.49-2.449-2.429-2.449s-2.428 1.019-2.428 2.449.49 2.468 2.428 2.468c1.94 0 2.43-1.019 2.43-2.468M101.45 28.91h2.586v7.051h4.367v2.233h-6.953zM109.833 28.91h3.486c3.741 0 5.387.881 5.387 4.642 0 3.682-1.626 4.642-5.387 4.642h-3.486zm3.643 7.032c2.331 0 2.605-.666 2.605-2.39s-.235-2.311-2.722-2.311h-.921v4.7z"/></svg>
